!!!OTL: FREUNDE TRINKT EINMAL
!!!ARE: Europa, Mitteleuropa, Deutschland
!!!SCT: F0681
!!!YEM: Copyright 1995, estate of Helmut Schaffrath.
**kern
*ICvox
*Ivox
*M4/4
*k[b-]
*F:
=1
{2a
8cc
8b-
8a
8g
=2
4f
4f
4f}
{4g
=3
2a
8cc
8b-
8a
8g
=4
2g
8f
8r}
{4f
=5
4dd
4dd
4dd
4dd
=6
4cc
4cc
4ff}
{8a
8cc
=7
4cc
4b-
4b-
4a
=8
2a
4g
4r}
=9
{4.g
8g
4g
4g
=10
4a
8a
8g
4f
4r}
=11
{4.a
8g
4a
4b-
=12
4cc
8cc
8b-
4a
4r}
=13
{4.cc
8dd
4cc
4b-
=14
2a
4g
4r}
=15
{4a
4a
8cc
8b-
8a
8g
=16
2g
8f
4.r}
==
!!!AGN: Geselligkeits -, Trink - Lied
!!!ONB: ESAC (Essen Associative Code) Database: FINK
!!!AMT: simple quadruple
!!!AIN: vox
!!!EED: Helmut Schaffrath
!!!EEV: 1.0
*-
